X: 1
T: Fj\"alln\"as Hambo    [D]
R: hambo
Z: 1999 Brian Wilson <baab@ma.ultranet.com> http://ma.ultranet.com/~baab
Z: from Peter Barnes "A little Couple-Dancemusik", p. 185
M: 3/4
L: 1/8
K: D
"^A" |:\
"D"D2 D>F E<C | D2 F>A d2 | "A"e2 e>d (3cBc | "D"d2 f>d A<F |\
"D"D2 D>F E<C | D2 F>A d2 | "A"e2 e>d (3cBc | "D"d2 d4 :|
"^B"|:\
"D"A2 F>A d>c | "G"B2 B>A G2 | "A"e2 e>d (3cBc | "D"d2 f>d A<F |\
"D"A2 F>A d>c | "G"B2 B>A G2 | "A"e2 e>d (3cBc | "D"d2 d4 :|
"^C"|:\
"D"f2 f>e d>c | "G"B2 B>A G2 | "A"e2 e>d c>B | "D"A2 A>G "A"F>{D}E |\
"D"D2 D>F E<C | D2 F>A d2 | "A"e2 e>d (3cBc | "D"d2 d4 :|
